!! 00000] TT[WS
!!!OTL: Ba tianqiao
!!!ARE: Asia, China, Shanxi Gaoping
!! Ethnic Group: Han
!! WII, 184 (1)
!!!SCT: J0679
!!!YEM: Copyright 1995, estate of Helmut Schaffrath.
**kern
*ICvox
*Ivox
*M2/4
*k[b-e-a-]
*E-:
{8g
16g
16ee-
8gg
8g
=1
16cc
16ee-
8g
4b-
=2
8cc
8ee-
8cc
8ee-
=3
16g
16b-
16cc
16ee-
4b-}
=4
{8r
8ee-
8cc
8ee-
=5
8.g
16ee-
8cc
8b-
=6
8r
4e-
8f
=7
16g
16b-
16g
16d
8f
8f}
=8
{8r
8b-
16b-
16g
8f
=9
8.g
16f
8d
16c
16c
=10
4e-
8f
8g
=11
8f
8e-
16c
16e-
8B-
=12
2c}
==
!!!AGN: Xiaodiao. Sichun
!!!ONB: ESAC (Essen Associative Code) Database: CHINA
!!!AMT: simple duple
!!!AIN: vox
!!!EED: Helmut Schaffrath
!!!EEV: 1.0
*-
